!!!COM: Palestrina, Giovanni Perluigi da
!!!OPR: In majoribus duplicibus
!!!OTL: Credo
**kern	**kern	**kern	**kern
*Ibass	*Itenor	*Icalto	*Icant
!Bassus	!Tenor	!Altus	!Cantus
*clefF4	*clefGv2	*clefG2	*clefG2
*k[]	*k[]	*k[]	*k[]
*?:X	*?:X	*?:X	*?:X
*M4/2	*M4/2	*M4/2	*M4/2
=1	=1	=1	=1
0r	0r	0r	1dd
.	.	.	1ee
=2	=2	=2	=2
0r	0r	1g	2dd
.	.	.	2dd
.	.	1a	2ff
.	.	.	[2ee
=3	=3	=3	=3
0r	0r	2g	2ee]
.	.	2g	1dd
.	.	2b	.
.	.	[2a	4cc
.	.	.	4b
=4	=4	=4	=4
0r	1r	2a]	2cc
.	.	2.g	2b
.	1d	.	1a
.	.	8f#	.
.	.	8e	.
.	.	2f#	.
=5	=5	=5	=5
1r	1e	2g	0g
.	.	2c	.
1G	2d	2B	.
.	2d	2B	.
=6	=6	=6	=6
1A	2f	1c	0r
.	1e	.	.
2G	.	1g	.
2G	[2d	.	.
=7	=7	=7	=7
2B	2d]	0r	0r
1A	4c	.	.
.	4B	.	.
.	2c	.	.
[2G	2B	.	.
=8	=8	=8	=8
2G]	1A	1r	0r
2F#	.	.	.
2.G	[1B	2r	.
.	.	2g	.
4F	.	.	.
=9	=9	=9	=9
2E	1B]	2g	1r
2D	.	2f	.
1C	1c	1e	1g
=10	=10	=10	=10
2r	1B	2.d	1dd
2G	.	.	.
.	.	4c	.
2G	1r	2B	1dd
2F	.	2A	.
=11	=11	=11	=11
1E	1G	2B	1ee
.	.	2c	.
[1D	1d	4B	2.ff
.	.	4A	.
.	.	4d	.
.	.	4e	4ee
=12	=12	=12	=12
1D]	1d	4f	2dd
.	.	4g	.
.	.	1a	2cc
1r	1e	.	1b
.	.	2g#	.
=13	=13	=13	=13
2r	1f	1a	1a
2d	.	.	.
2d	1e	1A	2r
2c	.	.	2a
=14	=14	=14	=14
1B	1d	2r	2a
.	.	2d	2g#
1A	1c	2.e	2a
.	.	.	2cc
.	.	4f	.
=15	=15	=15	=15
1G	1d	1g	2b
.	.	.	1b
1A	1c	[1e	.
.	.	.	[2a
=16	=16	=16	=16
1E	2B	0e]	2a]
.	1B	.	4g#
.	.	.	4f#
1E	.	.	1g#
.	2c	.	.
=17	=17	=17	=17
2F	2.d	0r	0r
1G	.	.	.
.	4c	.	.
.	2B	.	.
2F	2A	.	.
=18	=18	=18	=18
1E	2G	1e	0r
.	1c	.	.
1D	.	1f	.
.	2B	.	.
=19	=19	=19	=19
2C	2.e	2.g	0r
1c	.	.	.
.	4f	4f	.
.	2.g	2e	.
2B	.	2d	.
.	4f	.	.
=20	=20	=20	=20
2c	2e	2c	0r
2d	2d	1f	.
2.A	2.c	.	.
.	.	4e	.
4B	4B	4d	.
=21	=21	=21	=21
2c	2A	4e	0r
.	.	4f	.
2B	2G	1g	.
1A	[1c	.	.
.	.	2f#	.
=22	=22	=22	=22
2r	1c]	1g	1.ee
1c	.	.	.
.	1r	[1a	.
2d	.	.	2ff
=23	=23	=23	=23
2c	1r	2a]	2ee
2G	.	2b	2dd
2.A	[1e	1a	[1cc
4B	.	.	.
=24	=24	=24	=24
2c	2e]	1.a	2cc]
2d	2f	.	4b
.	.	.	4a
2c	2e	.	2cc
2B	2d	[2g	[2dd
=25	=25	=25	=25
1c	2.e	2g]	4dd]
.	.	.	4cc
.	.	2g	1cc
.	8d	.	.
.	8c	.	.
1G	2d	2.g	.
.	2d	.	2b
.	.	4f	.
=26	=26	=26	=26
1C	1c	4e	1cc
.	.	4d	.
.	.	2e	.
2r	2.c	1A	1r
[2F	.	.	.
.	4B	.	.
=27	=27	=27	=27
2F]	2A	0r	2.cc
2E	2G	.	.
.	.	.	4b
2F	2d	.	2a
2E	2e	.	2g
=28	=28	=28	=28
2D	2f	1r	2dd
2C#	2e	.	2ee
1D	2.d	2.f	[1ff
.	4e	4e	.
=29	=29	=29	=29
0r	2f	2d	2ff]
.	1g	2c	2ee
.	.	2g	[1dd
.	2f#	2a	.
=30	=30	=30	=30
0r	2g	2b	1dd]
.	2G	2b	.
.	4A	1a	1cc
.	4B	.	.
.	4c	.	.
.	4d	.	.
=31	=31	=31	=31
0r	4e	2g	1b
.	4f	.	.
.	2g	2e	.
.	4d	4f	1a
.	4e	4g	.
.	2f	[2a	.
=32	=32	=32	=32
1r	1e	2a]	1b
.	.	2g#	.
2r	1A	2.a	[1cc
[2A	.	.	.
.	.	8g	.
.	.	8f	.
=33	=33	=33	=33
2A]	1r	1e	2cc]
2G#	.	.	2b
1A	2r	2r	1a
.	[2e	[2a	.
=34	=34	=34	=34
1B	2e]	2a]	1r
.	2d	2g#	.
1A	1e	[1a	2r
.	.	.	[2ee
=35	=35	=35	=35
1r	1f	1a]	2ee]
.	.	.	2dd
1A	2e	1cc	1ee
.	[2e	.	.
=36	=36	=36	=36
2D	2e]	0a	1ff
2D	2d	.	.
2.A	2.c	.	2ee
.	.	.	[2ee
4B	4d	.	.
=37	=37	=37	=37
2c	2e	1.a	2ee]
2d	2f	.	2dd
2A	2e	.	2cc
2B	2d	2g	[2dd
=38	=38	=38	=38
2.c	2.e	2g	4dd]
.	.	.	4cc
.	.	2g	1cc
8B	8d	.	.
8A	8c	.	.
2G	1d	1g	.
2G	.	.	2b
=39	=39	=39	=39
[0C	1c	2r	0cc
.	.	1e	.
.	2r	.	.
.	[2e	2c	.
=40	=40	=40	=40
1C]	2e]	2.e	2r
.	2c	.	1ee
.	.	4f	.
1r	2e	2g	.
.	2f	2a	2cc
=41	=41	=41	=41
0r	2g	2b	2ee
.	2.a	2.cc	2ff
.	.	.	1ee
.	4g	4b	.
.	2e	2g	.
=42	=42	=42	=42
1r	2f	2a	1dd
.	2g	2b	.
2r	2c	1cc	1ee
[2A	[2c	.	.
=43	=43	=43	=43
2A]	2c]	1.a	0r
2F	2A	.	.
2.A	2.c	.	.
.	.	2f	.
4B	4d	.	.
=44	=44	=44	=44
2c	2e	2a	0r
2d	2f	2b-	.
2c	2e	1a	.
4B	4d	.	.
4A	4c	.	.
=45	=45	=45	=45
2B	2d	2.g	0r
1c	1e	.	.
.	.	8f	.
.	.	8g	.
.	.	2a	.
2B	2d	[2g	.
=46	=46	=46	=46
1A	1c	2g]	1r
.	.	2f#	.
1G	1d	2g	2r
.	.	4r	2g
.	.	4g	.
=47	=47	=47	=47
0r	0r	2f	2dd
.	.	2g	2dd
.	.	4a	1cc
.	.	4g	.
.	.	4f	.
.	.	4e	.
=48	=48	=48	=48
1r	1G	4d	1b
.	.	4c	.
.	.	2d	.
2r	[1g	1c	1cc
2c	.	.	.
=49	=49	=49	=49
2B	2g]	1r	0r
2c	2g	.	.
1d	1f	2r	.
.	.	2a	.
=50	=50	=50	=50
1c	2e	1.cc	1ee
.	2g	.	.
1r	2a	.	2ff
.	2g	2b	2ee
=51	=51	=51	=51
2r	2f	2.a	2dd
2A	2e	.	2cc
.	.	4g	.
2.B-	2.d	1f	1dd
4A	4c	.	.
=52	=52	=52	=52
2G	2B-	1r	1dd
2F#	2A	.	.
4G	1G	1g	1b
4F	.	.	.
4E	.	.	.
4D	.	.	.
=53	=53	=53	=53
1C	1r	1e	1cc
1r	1d	1f	1a
=54	=54	=54	=54
1G	1B	1d	0r
1E	1c	2r	.
.	.	2g	.
=55	=55	=55	=55
1F	2A	1.a	0r
.	2c	.	.
2D	2f	.	.
2E	2e	2g	.
=56	=56	=56	=56
2F	2d	2a	2r
2E	1c	2g	2ee
1D	.	2.f	1ff
.	2B	.	.
.	.	8e	.
.	.	8d	.
=57	=57	=57	=57
1C	2c	2g	1ee
.	2c	2e	.
1r	2B-	2f	2dd
.	2c	2e	[2cc
=58	=58	=58	=58
1r	1G	1d	2cc]
.	.	.	2b
2r	1A	1c	4cc
.	.	.	4b-
[2F	.	.	4a
.	.	.	4g
=59	=59	=59	=59
4F]	2.c	0r	1a
4F	.	.	.
2F	.	.	.
.	4c	.	.
2E	2c	.	1g
[2G	2B	.	.
=60	=60	=60	=60
2G]	2.d	0r	0r
4F	.	.	.
4E	4c	.	.
2D	2d	.	.
2C	[2e	.	.
=61	=61	=61	=61
1D	4e]	2.f	0r
.	4d	.	.
.	1d	.	.
.	.	4f	.
1A	.	2f	.
.	2c#	2e	.
=62	=62	=62	=62
4G	2d	2.g	1r
4F	.	.	.
4E	2.e	.	.
4D	.	4f	.
2C	.	2g	2.cc
.	4d	.	.
2F	[2c	[2a	.
.	.	.	4cc
=63	=63	=63	=63
1E	4c]	4a]	2cc
.	8B	4g	.
.	8A	.	.
.	2G	1g	2b
1D	2A	.	2.dd
.	[2d	4f	.
.	.	4e	4cc
=64	=64	=64	=64
0r	2d]	2f	2dd
.	2c	2g	2.ee
.	2f	1a	.
.	.	.	4dd
.	2f	.	[2dd
=65	=65	=65	=65
2.A	1e	2r	2dd]
.	.	1a	2cc
4A	.	.	.
1B-	1d	.	1dd
.	.	2g	.
=66	=66	=66	=66
1A	2r	2f	0r
.	1e	2e	.
1G	.	[1g	.
.	2d	.	.
=67	=67	=67	=67
1E	2c	1g]	0r
.	2B	.	.
1F	2A	1a	.
.	4A	.	.
.	[4d	.	.
=68	=68	=68	=68
1E	4d]	1g	2.ee
.	8c#	.	.
.	8B	.	.
.	2c#	.	.
.	.	.	4ee
1D	2d	4f	1ff
.	.	4g	.
.	[2a	4a	.
.	.	4b	.
=69	=69	=69	=69
0r	2a]	2cc	1ee
.	2g	2.b	.
.	2f	.	1dd
.	.	4a	.
.	2d	[2a	.
=70	=70	=70	=70
0r	1e	2a]	1b
.	.	2g#	.
.	2A	4a	1cc
.	.	4g	.
.	[2a	4f	.
.	.	4e	.
=71	=71	=71	=71
2r	2a]	2d	1b
2E	2g#	2e	.
1F	4a	1c	1a
.	4g	.	.
.	4f	.	.
.	4e	.	.
=72	=72	=72	=72
2G	1d	1r	1b
2G	.	.	.
1A	1r	1e	1cc
=73	=73	=73	=73
1D	1r	1f	1.dd
1G	1B	1g	.
.	.	.	2dd
=74	=74	=74	=74
2A	1c	2e	1cc
2A	.	2f	.
1G	1d	[1g	1b
=75	=75	=75	=75
2E	2e	2g]	2cc
2D	2f	2a	2.dd
1A	2e	[1a	.
.	.	.	8cc#
.	.	.	8b
.	2e	.	2cc#
=76	=76	=76	=76
1D	2f	1a]	2.dd
.	2d	.	.
.	.	.	4ee
2r	2d	1r	4ff
.	.	.	4ee
2G	2d	.	4dd
.	.	.	4cc
=77	=77	=77	=77
2G	1e	0r	4b
.	.	.	4a
2G	.	.	2b
1A	2f	.	1a
.	2f	.	.
=78	=78	=78	=78
2B-	2d	0r	0r
2B-	2d	.	.
2G	2d	.	.
2G	2e	.	.
=79	=79	=79	=79
2G	2d	0r	1r
2A	2.c	.	.
1G	.	.	1dd
.	4B	.	.
.	2B	.	.
=80	=80	=80	=80
2F#	2A	2r	2dd
2G	2.d	2g	2dd
1E	.	2g	1ee
.	4c	.	.
.	4c	2g	.
.	4B	.	.
=81	=81	=81	=81
1D	1d	1a	2ff
.	.	.	2ff
1r	[1G	2b	2dd
.	.	2b	2dd
=82	=82	=82	=82
0r	1G]	2g	2dd
.	.	2g	2ee
.	1r	2g	2dd
.	.	2g	2b
=83	=83	=83	=83
2r	1r	1a	2cc
2d	.	.	2dd
2d	2r	2f	4a
.	.	.	4b
2e	2g	2g	4cc
.	.	.	8b
.	.	.	8cc
=84	=84	=84	=84
1d	2g	1a	1.dd
.	2f#	.	.
2B	2g	1g	.
2c	2e	.	4cc
.	.	.	4b
=85	=85	=85	=85
1d	1f	1r	2a
.	.	.	1dd
1A	1e	2r	.
.	.	2a	2cc#
=86	=86	=86	=86
2r	1d	2b-	0dd
2d	.	1a	.
1d	1r	.	.
.	.	4g	.
.	.	4f	.
=87	=87	=87	=87
2c	0r	2e	1r
2B	.	2d	.
1c#	.	1e	2r
.	.	.	2a
=88	=88	=88	=88
2d	2r	1d	2b-
2D	2d	.	1a
2F	1d	1r	.
2G	.	.	4g
.	.	.	4f
=89	=89	=89	=89
2A	2c	1r	2e
2d	2B	.	2d
1A	1c#	2r	1e
.	.	2a	.
=90	=90	=90	=90
1r	1d	2b-	4d
.	.	.	4e
.	.	2.a	4f
.	.	.	4g
1A	2r	.	4a
.	.	4g	4b
.	4A	2f	4cc
.	4B	.	4dd
=91	=91	=91	=91
1A	4c	2e	2ee
.	4d	.	.
.	4e	2a	4cc
.	4f	.	4dd
2G	2g	2b	4ee
.	.	.	4dd
2F	2a	[2cc	2ff
=92	=92	=92	=92
1G	2.g	2cc]	4ee
.	.	.	4dd
.	.	2b	1dd
.	4f	.	.
1A	1e	1a	.
.	.	.	2cc#
=93	=93	=93	=93
0D	0d	0a	0dd
=94	=94	=94	=94
0r	0r	0g	0r
=95	=95	=95	=95
1r	0r	1e	0g
[1G	.	2.d	.
.	.	4c	.
=96	=96	=96	=96
1G]	0G	4B	1dd
.	.	4A	.
.	.	2.B	.
1E	.	.	1ee
.	.	4G	.
.	.	2g	.
=97	=97	=97	=97
2D	1d	0a	1ff
2.d	.	.	.
.	1e	.	1ee
4c#	.	.	.
2c#	.	.	.
=98	=98	=98	=98
1d	1f	0a	1dd
1A	1e	.	1cc#
=99	=99	=99	=99
0D	0d	1f#	1dd
.	.	2r	2r
.	.	2d	2dd
=100	=100	=100	=100
0r	0r	2g	2dd
.	.	2a	2cc
.	.	1b	1dd
=101	=101	=101	=101
1C	1r	1cc	1ee
[1G	2r	1b	1dd
.	2d	.	.
=102	=102	=102	=102
2G]	2d	0r	1r
2A	2c	.	.
1B	1d	.	1dd
=103	=103	=103	=103
1c	1e	2r	1g
.	.	1cc	.
1G	1d	.	2.dd
.	.	2b	.
.	.	.	4ee
=104	=104	=104	=104
1D	1d	4a	1ff
.	.	4g	.
.	.	4a	.
.	.	4b	.
1C	1G	2.cc	1ee
.	.	4b	.
=105	=105	=105	=105
4D	2.d	4a	1dd
4E	.	4g	.
4F	.	1a	.
4G	4e	.	.
2A	1f	.	2cc
2B	.	2d	[2dd
=106	=106	=106	=106
2c	1e	1.g	4dd]
.	.	.	4cc
2c	.	.	1cc
1G	2d	.	.
.	2d	2g	2b
=107	=107	=107	=107
2r	1c	2e	1cc
1e	.	2g	.
.	1r	2g	2r
[2d	.	2f	2dd
=108	=108	=108	=108
2d]	2r	1e	1ee
2c#	1e	.	.
1d	.	1a	1ff
.	[2d	.	.
=109	=109	=109	=109
2.A	2d]	2r	1ee
.	2c#	1a	.
4G	.	.	.
2F#	2d	.	1dd
2G	2B	[2g	.
=110	=110	=110	=110
1C	2c	2g]	1ee
.	2.g	2e	.
1D	.	1a	[1dd
.	4f	.	.
.	2f	.	.
=111	=111	=111	=111
0A	0e	0a	2dd]
.	.	.	4cc#
.	.	.	4b
.	.	.	1cc#
=112	=112	=112	=112
0D	0d	0a	0dd
*	*	*	*-
!! Crucifixus
*Ibass	*Itenor	*Icalto
!Bassus	!Tenor	!Altus
*clefF4	*clefGv2	*clefG2
*k[]	*k[]	*k[]
*?:X	*?:X	*?:X
*M4/2	*M4/2	*M4/2
=113	=113	=113
1r	1.e	0r
[1A	.	.
.	2c	.
=114	=114	=114
2A]	2e	0r
2F	2f	.
2A	2e	.
2B-	2d	.
=115	=115	=115
2A	2.e	0r
2G	.	.
.	4d	.
2A	2c	.
2F	2A	.
=116	=116	=116
2.E	2c	0r
.	4B	.
4F	4A	.
2G	4B	.
.	4c	.
2F	[2d	.
=117	=117	=117
1E	4d]	1r
.	8c#	.
.	8B	.
.	2c#	.
1D	2d	[1a
.	[2f	.
=118	=118	=118
1.d	2f]	2a]
.	2d	2f
.	2f	2a
2G	2g	2b-
=119	=119	=119
2A	2f	2a
2c	2e	2g
2.F	2f	2a
.	2d	2f
4G	.	.
=120	=120	=120
2.A	2.c	2.e
8G	4d	4f
8F	.	.
2E	2e	2g
2F	4d	[2a
.	4c	.
=121	=121	=121
2G	2B	4a]
.	.	4g
2C	2c	1g
1D	1A	.
.	.	2f#
=122	=122	=122
1E	1G	4g
.	.	4f
.	.	4e
.	.	4d
1C	2r	2.e
.	2c	.
.	.	8d
.	.	8c
=123	=123	=123
1G	2d	1B
.	2e	.
2A	1f	1r
2B	.	.
=124	=124	=124
4c	1e	2r
4B	.	.
4A	.	2c
4G	.	.
2F	2d	2d
2E	[2c	2e
=125	=125	=125
1D	2c]	1f
.	2B	.
4C	2c	1e
4D	.	.
4E	4B	.
4F	4A	.
=126	=126	=126
2G	2B	2d
2A	2c	1c
1G	1d	.
.	.	2B
=127	=127	=127
1C	2r	2c
.	1e	1g
2r	.	.
[2A	2c	2e
=128	=128	=128
2A]	1.f	1.a
2F	.	.
1c	.	.
.	2e	2g
=129	=129	=129
2d	2d	2f
2.c	2.e-	2.g
4d	4d	4f
2B-	[2d	2d
=130	=130	=130
2.A	2d]	1e
.	2c#	.
4G	.	.
2F#	1d	[1d
2G	.	.
=131	=131	=131
2.D	2r	1d]
.	2d	.
4E	.	.
1F	2c	2r
.	2A	2a
=132	=132	=132
1E	2B	2g
.	2c	2e
1r	2d	2f
.	2B	2g
=133	=133	=133
0r	4A	1a
.	4B	.
.	4c	.
.	4d	.
.	2e	2g
.	[2f	2a
=134	=134	=134
1r	4f]	1f
.	4e	.
.	2.d	.
1A	.	[1e
.	4c	.
.	4c	.
.	8B	.
.	8A	.
=135	=135	=135
2G	1B	1e]
2E	.	.
2F	2A	2.d
2G	[2d	.
.	.	4e
=136	=136	=136
1A	2d]	2f
.	2c	2.e
2G	2B	.
.	.	4d
2A	[2c	4c
.	.	4B
=137	=137	=137
1F	2c]	2A
.	4B	1a
.	4A	.
1E	1B	.
.	.	2g#
=138	=138	=138
1r	2A	1a
.	2A	.
1E	2B	1r
.	2c	.
=139	=139	=139
2F	2.d	0r
2G	.	.
.	4B	.
1A	4c	.
.	4d	.
.	[2e	.
=140	=140	=140
2G	4e]	2r
.	4d	.
1A	4c	2e
.	4B	.
.	2c	2f
[2G	2B	2g
=141	=141	=141
2G]	1A	1a
2F#	.	.
2G	2r	2g
2F	2A	[2a
=142	=142	=142
1E	2B	2a]
.	2c	1g
1D	2.d	.
.	.	2f
.	4c	.
=143	=143	=143
2E	2B	1.g
2C	2.e	.
1D	.	.
.	4d	.
.	[2d	2f
=144	=144	=144
1A	2d]	0e
.	4c	.
.	4B	.
2r	2.c	.
2A	.	.
.	4A	.
=145	=145	=145
1G	1B	1r
1F	1A	1a
=146	=146	=146
2E	2r	1g
2C	2e	.
4D	1d	1f
4E	.	.
4F	.	.
4G	.	.
=147	=147	=147
4A	1c	1e
4B	.	.
2c	.	.
2G	1B	1d
2G	.	.
=148	=148	=148
4D	1A	1f
4E	.	.
4F	.	.
4G	.	.
2A	1c	2e
2A	.	2f#
=149	=149	=149
4G	1B	[0g
4F	.	.
4E	.	.
4D	.	.
2C	1c	.
[2c	.	.
=150	=150	=150
4c]	2d	1g]
8B	.	.
8A	.	.
2B	2d	.
1c	2e	2r
.	2c	2g
=151	=151	=151
0r	2.f	2a
.	.	2f
.	4d	.
.	2d	2.b-
.	[2g	.
.	.	4b-
=152	=152	=152
1r	4g]	1a
.	4f	.
.	2f	.
2r	2e	2.g
2G	2d	.
.	.	4f
=153	=153	=153
2A	1c	2e
2F	.	1a
2.B-	2r	.
.	2d	2g
4B-	.	.
=154	=154	=154
2.A	2e	0a
.	2c	.
4G	.	.
4F	2.f	.
4E	.	.
2D	.	.
.	4f	.
=155	=155	=155
2.G	2e	2r
.	2.d	2d
4F	.	.
2E	.	2e
.	4c	.
2F	[2c	2c
=156	=156	=156
1D	4c]	2.f
.	8B	.
.	8A	.
.	2B	.
.	.	4f
2C	1c	1e
[2c	.	.
=157	=157	=157
2c]	2G	1d
2B	2d	.
1c	2e	2c
.	2c	2g
=158	=158	=158
1r	2.f	2a
.	.	2f
.	4f	.
1G	2d	2.b-
.	2g	.
.	.	4b-
=159	=159	=159
2A	4f	1a
.	4e	.
2F	2.f	.
2.B-	.	4d
.	4e	4e
.	2d	4f
4B-	.	4g
=160	=160	=160
1A	4c	4a
.	4d	4b
.	4e	1cc
.	4f#	.
1G	2g	.
.	2d	2b-
=161	=161	=161
1F	2.f	1a
.	4f	.
1G	2e	2.g
.	2d	.
.	.	4f
=162	=162	=162
0A	2c#	2e
.	1d	2d
.	.	1e
.	2c#	.
=163	=163	=163
0D	0d	0f#
*-	*-	*-
!! Et iterum
**kern	**kern	**kern	**kern
*Ibass	*Itenor	*Icalto	*Icant
!Bassus	!Tenor	!Altus	!Cantus
*clefF4	*clefGv2	*clefG2	*clefG2
*k[]	*k[]	*k[]	*k[]
*?:X	*?:X	*?:X	*?:X
*M4/2	*M4/2	*M4/2	*M4/2
=164	=164	=164	=164
0r	1d	0r	0r
.	[1f	.	.
=165	=165	=165	=165
0r	2f]	1r	0r
.	2e	.	.
.	2d	1a	.
.	2d	.	.
=166	=166	=166	=166
0r	4c	1.cc	1r
.	4d	.	.
.	4e	.	.
.	4f	.	.
.	2g	.	1dd
.	2g	2b	.
=167	=167	=167	=167
0r	1.d	2a	1.ff
.	.	2a	.
.	.	2a	.
.	2c	[2cc	2ee
=168	=168	=168	=168
0r	2.G	4cc]	2dd
.	.	4b	.
.	.	1b	2dd
.	4A	.	.
.	2B	.	2dd
.	2c	[2a	2ee
=169	=169	=169	=169
1r	2.B	4a]	1.dd
.	.	4g	.
.	.	2.g	.
.	8A	.	.
.	8G	.	.
1D	1A	.	.
.	.	8f#	.
.	.	8e	.
.	.	2f#	2a
=170	=170	=170	=170
2.G	2r	0g	1.b
.	2G	.	.
4G	.	.	.
2G	2.d	.	.
2G	.	.	2b
.	4d	.	.
=171	=171	=171	=171
4F	2d	0r	0a
4E	.	.	.
4D	1d	.	.
4E	.	.	.
4F	.	.	.
4G	.	.	.
4A	2c	.	.
4F	.	.	.
=172	=172	=172	=172
2G	2B	0r	0r
2.F	4A	.	.
.	4G	.	.
.	4A	.	.
4E	4B	.	.
4E	[2c	.	.
8D	.	.	.
8C	.	.	.
=173	=173	=173	=173
1D	4c]	1r	0r
.	4B	.	.
.	4B	.	.
.	8A	.	.
.	8B	.	.
1C	2.c	2.e	.
.	4d	4f	.
=174	=174	=174	=174
0r	1e	4g	1b
.	.	4a	.
.	.	4b	.
.	.	4g	.
.	1A	4a	1cc
.	.	4b	.
.	.	2cc	.
=175	=175	=175	=175
0r	1G	2b	1dd
.	.	1b	.
.	4A	.	1cc
.	4B	.	.
.	4c	[2a	.
.	4d	.	.
=176	=176	=176	=176
1r	2e	2a]	1b
.	2e	2g#	.
2r	1A	1a	1a
[2A	.	.	.
=177	=177	=177	=177
2A]	1e	0r	0r
2G	.	.	.
1B-	2d	.	.
.	[2f	.	.
=178	=178	=178	=178
2A	2f]	0r	0r
2G	1e	.	.
2E	.	.	.
2F	2d	.	.
=179	=179	=179	=179
2G	2B	0r	0r
4F	2c	.	.
4E	.	.	.
2F	2d	.	.
[2G	[2e	.	.
=180	=180	=180	=180
4G]	4e]	2r	0r
4F	4d	.	.
4F	2.d	1a	.
8E	.	.	.
8D	.	.	.
1E	.	.	.
.	4c#	.	.
.	4c#	2g	.
.	8B	.	.
.	8c#	.	.
=181	=181	=181	=181
2D	1d	1b-	0r
2G	.	.	.
2F#	1d	2a	.
2G	.	2g	.
=182	=182	=182	=182
1A	1.c	2.e	2r
.	.	.	1ee
.	.	4f#	.
1G	.	2g	.
.	2B	2g	2dd
=183	=183	=183	=183
1D	1d	2a	1ff
.	.	4g	.
.	.	4f	.
2r	2c	[1g	2ee
[2G	4B	.	2dd
.	4A	.	.
=184	=184	=184	=184
4G]	2G	1g]	2b
4F	.	.	.
2E	2g	.	2cc
2D	2f	[1a	2dd
2C#	2e	.	[2ee
=185	=185	=185	=185
1D	1f	0a]	4ee]
.	.	.	4dd
.	.	.	1dd
1A	1e	.	.
.	.	.	2cc#
=186	=186	=186	=186
2D	2r	2r	2dd
1G	1d	1g	1b
2G	2B	2d	2g
=187	=187	=187	=187
2F	2c	2f	2a
2D	2d	2f	2b
1C	1e	1g	2cc
.	.	.	[2cc
=188	=188	=188	=188
1.G	1.d	1.g	2cc]
.	.	.	4b
.	.	.	4a
.	.	.	2b
2E	2c	2g	2ee
=189	=189	=189	=189
2G	2B	2g	2dd
2A	2c	2e	2cc
2.G	1d	1g	2b
.	.	.	[2dd
4A	.	.	.
=190	=190	=190	=190
2B	1r	1g	2dd]
2c	.	.	2ee
2A	2r	2a	2cc
2d	2d	2f	2ff
=191	=191	=191	=191
2c	1e	1g	4ee
.	.	.	4ff
2.c	.	.	4gg
.	.	.	4ff
.	1c	[1a	4ee
4B	.	.	4dd
4A	.	.	4cc
4G	.	.	4b
=192	=192	=192	=192
4F	1f	1a]	4a
4E	.	.	8b
.	.	.	8cc
2D	.	.	1dd
1A	1e	[1a	.
.	.	.	2cc#
=193	=193	=193	=193
2r	1d	2a]	1dd
2B	.	4g	.
.	.	4f	.
1c	2r	1e	2.cc
.	2e	.	.
.	.	.	4b
=194	=194	=194	=194
1d	1f#	0r	1a
2G	1g	.	1r
[2c	.	.	.
=195	=195	=195	=195
4c]	1c	0r	0r
4B	.	.	.
2A	.	.	.
2F	2.f	.	.
2A	.	.	.
.	4f	.	.
=196	=196	=196	=196
2.G	2e	0r	1r
.	1d	.	.
4F	.	.	.
1E	.	.	1ee
.	2c#	.	.
=197	=197	=197	=197
1D	1d	2r	1ff#
.	.	2a	.
1r	2G	2b	1gg
.	2c	[2cc	.
=198	=198	=198	=198
0r	2A	2cc]	1cc
.	2a	1f	.
.	2.d	.	[1ff
.	.	[2b-	.
.	4e	.	.
=199	=199	=199	=199
0r	2f	4b-]	2ff]
.	.	4a	.
.	2f	2a	2ff
.	2c	2g	2ee
.	2d	2f	[2dd
=200	=200	=200	=200
0r	1A	1e	2dd]
.	.	.	2cc#
.	1r	1d	2dd
.	.	.	2dd
!! Qui cum Patre
*Ibass	*Itenor	*Icalto	*Icant
!Bassus	!Tenor	!Altus	!Cantus
*clefF4	*clefGv2	*clefG2	*clefG2
*k[]	*k[]	*k[]	*k[]
*?:X	*?:X	*?:X	*?:X
*M3/2	*M3/2	*M3/2	*M3/2
=201	=201	=201	=201
1A	1e	1a	1cc
2d	2f#	2a	2dd
=202	=202	=202	=202
1c	1g	1cc	1ee
2c	2e	2g	2cc
=203	=203	=203	=203
2G	2g	2b	2dd
2c	2g	2cc	2ee
2c	2e	2g	2cc
=204	=204	=204	=204
1F	1f	1cc	1a
2r	2r	2r	2r
=205	=205	=205	=205
1F	1f	1a	1cc
2C	2e	2g	2cc
=206	=206	=206	=206
1G	1d	1g	1b
[2A	2c	2e	[2cc
=207	=207	=207	=207
2A]	2.f	1a	2cc]
1B-	.	.	1dd
.	4e	.	.
.	2d	2g	.
=208	=208	=208	=208
1A	1e	1a	1cc#
2r	2r	2r	2r
=209	=209	=209	=209
2G	2g	2b	2dd
2G	2g	2b	2dd
2G	2g	2b	2dd
=210	=210	=210	=210
2.c	1.e	2cc	2.ee
.	.	4c	.
4B	.	4d	4dd
2A	.	4e	2cc
.	.	4f#	.
=211	=211	=211	=211
2E	2e	2g	2b
1A	1e	1a	1cc
=212	=212	=212	=212
1G	1g	1b	1dd
2r	2r	2r	2r
=213	=213	=213	=213
2d	2f#	2a	2dd
2d	2f#	2a	2dd
2G	2g	2b	2dd
=214	=214	=214	=214
2c	2e	2cc	2ee
1F	1f	1a	1cc
=215	=215	=215	=215
2F	2a	2.cc	2ff
2C	2g	.	1ee
.	.	4b	.
4D	[2f	2a	.
4E	.	.	.
=216	=216	=216	=216
4F	2f]	2a	1dd
4G	.	.	.
1A	1e	1a	.
.	.	.	2cc#
!! Et unam sanctam
*Ibass	*Itenor	*Icalto	*Icant
!Bassus	!Tenor	!Altus	!Cantus
*clefF4	*clefGv2	*clefG2	*clefG2
*k[]	*k[]	*k[]	*k[]
*?:X	*?:X	*?:X	*?:X
*M4/2	*M4/2	*M4/2	*M4/2
=217	=217	=217	=217
0D	0d	1f#	1dd
.	.	2r	2r
.	.	2d	2dd
=218	=218	=218	=218
0r	2r	2e	2g
.	2d	2f#	2dd
.	2G	1g	1dd
.	2B	.	.
=219	=219	=219	=219
0r	2A	2a	2cc
.	4G	2b	2dd
.	4G	.	.
.	2A	2a	2cc
.	2G	2b	2dd
=220	=220	=220	=220
2r	2c	1cc	1ee
2C	2e	.	.
2F	2c	1r	1r
2G	2e	.	.
=221	=221	=221	=221
2.A	2.f	2r	1r
.	.	2c	.
4G	4e	.	.
2F	2d	2f	2r
2E	2c	2g	2ee
=222	=222	=222	=222
2F	2A	2a	2cc
2D	2B	2f	2dd
1C	1c	4e	2.ee
.	.	4f	.
.	.	4g	.
.	.	4e	4ee
=223	=223	=223	=223
0r	0r	2f	2dd
.	.	2e	2cc
.	.	2f	2a
.	.	2d	2b
=224	=224	=224	=224
1r	2r	2c	0cc
.	2e	2A	.
2r	2.f	2.a	.
2A	.	.	.
.	4e	4g	.
=225	=225	=225	=225
2.B-	1.d	1f	0r
4A	.	.	.
2G	.	1r	.
2G	2e	.	.
=226	=226	=226	=226
2F	2d	1r	2r
2E	2c	.	2ee
1D	[1d	1a	2.ff
.	.	.	4ee
=227	=227	=227	=227
1.G	2d]	2.b-	1.dd
.	2G	.	.
.	.	4a	.
.	1r	[1g	.
2c	.	.	2ee
=228	=228	=228	=228
2B	0r	2g]	2dd
2A	.	2a	2cc
4.B	.	2g	1dd
8c	.	.	.
2d	.	2f#	.
=229	=229	=229	=229
2G	1d	1.g	1b
2G	.	.	.
2E	1e	.	1r
[2A	.	2c	.
=230	=230	=230	=230
2A]	2.f	0r	0r
2F	.	.	.
.	4e	.	.
2G	2d	.	.
2A	2c	.	.
=231	=231	=231	=231
2F#	2d	2r	1dd
2G	2B	1g	.
1E	1c#	.	1ee
.	.	2e	.
=232	=232	=232	=232
1D	1d	2a	2.ff
.	.	2f	.
.	.	.	4ee
1r	1r	2g	2dd
.	.	2a	2cc
=233	=233	=233	=233
0r	0r	2f#	2dd
.	.	2g	2b
.	.	1e	1cc#
=234	=234	=234	=234
0r	1G	2d	4dd
.	.	.	4cc
.	.	1g	4b
.	.	.	8a
.	.	.	8g
.	1d	.	[1a
.	.	4f#	.
.	.	4e	.
=235	=235	=235	=235
1r	1d	2f#	1a]
.	.	2f#	.
1C	1e	[1g	2r
.	.	.	[2cc
=236	=236	=236	=236
1G	2.d	1g]	2cc]
.	.	.	4b
.	4c	.	4a
1G	2d	2.g	2b
.	4e	.	2b
.	4d	4f	.
=237	=237	=237	=237
1.A	4c	4e	1.cc
.	4B	4d	.
.	4c	2.c	.
.	4B	.	.
.	2A	.	.
.	.	4d	.
2G	2B	[2e	2b
=238	=238	=238	=238
1F	2c	4e]	1a
.	.	8d	.
.	.	8c	.
.	2A	2d	.
1E	1B	1e	1g#
=239	=239	=239	=239
1.D	1.d	1.f	1r
.	.	.	[1a
2C#	2e	2e	.
=240	=240	=240	=240
2D	2f	2d	2a]
2D	2f	2d	2b
1A	1e	2c	1cc
.	.	2A	.
=241	=241	=241	=241
1F	1f	1a	1cc
1G	1d	1g	1b
=242	=242	=242	=242
2.A	0c	1e	2a
.	.	.	2ee
4G	.	.	.
4F	.	1a	2ff
4G	.	.	.
4A	.	.	[2ee
4B	.	.	.
=243	=243	=243	=243
1c	1e	[0g	4ee]
.	.	.	4dd
.	.	.	1cc
1G	1d	.	.
.	.	.	2b
=244	=244	=244	=244
1c	2c	1g]	0cc
.	2e	.	.
2r	1f	2r	.
2A	.	2c	.
=245	=245	=245	=245
1B	1.g	1d	0r
2.c	.	2.e	.
.	2g	.	.
4B	.	4d	.
=246	=246	=246	=246
2A	2.f	4c	0r
.	.	4B	.
2F	.	2A	.
.	4e	.	.
2G	2d	2B	.
2A	2c	[2A	.
=247	=247	=247	=247
2F	2d	2A]	0r
2E	2.e	2G	.
2F	.	2A	.
.	4d	.	.
4E	[2d	2B	.
4D	.	.	.
=248	=248	=248	=248
1E	2d]	1G	1ee
.	2c#	.	.
1D	[1d	2A	1ff#
.	.	2a	.
=249	=249	=249	=249
1G	1d]	1b	1.gg
1c	1e	2.cc	.
.	.	.	2gg
.	.	4b	.
=250	=250	=250	=250
2.d	2f	2a	2.ff
.	1d	2f	.
4c	.	.	4ee
2B	.	2g	2dd
2A	2e	2a	2cc
=251	=251	=251	=251
2d	2d	2f	2dd
2c#	2A	2e	2.ee
2d	2a	2f	.
.	.	.	4dd
2B-	2g	4e	[2dd
.	.	4d	.
=252	=252	=252	=252
0A	2.a	1e	2dd]
.	.	.	2cc#
.	4g	.	.
.	2f	1d	1dd
.	2d	.	.
=253	=253	=253	=253
1r	4e	2r	1g
.	4f	.	.
.	4g	2g	.
.	4e	.	.
1r	2f	2a	1dd
.	2g	2b	.
=254	=254	=254	=254
1r	4c	2cc	1ee
.	4d	.	.
.	4e	4b	.
.	4f	4a	.
1r	2g	2b	[1dd
.	4d	4a	.
.	4e	4g	.
=255	=255	=255	=255
1r	4f	2a	2dd]
.	4g	.	.
.	2.a	2f	2cc
1r	.	1g	2.b
.	4g	.	.
.	[2g	.	.
.	.	.	8a
.	.	.	8g
=256	=256	=256	=256
1r	2g]	2d	1a
.	2f#	2d	.
2r	1g	4B	1g
.	.	4c	.
2G	.	4d	.
.	.	4B	.
=257	=257	=257	=257
4E	1G	2c	2r
4F	.	.	.
4G	.	2B	2g
4E	.	.	.
2F	1d	2A	2a
2G	.	[2G	2b
=258	=258	=258	=258
1C	1e	2G]	1cc
.	.	2A	.
2.G	[1d	4B	1b
.	.	4c	.
.	.	4d	.
4F	.	4e	.
=259	=259	=259	=259
4D	2d]	4f	2r
4E	.	4g	.
2F	2c	2.a	2a
2G	2B	.	2b
.	.	4g	.
2E	4A	[2g	2cc
.	4G	.	.
=260	=260	=260	=260
1D	1A	2g]	1dd
.	.	2f#	.
[1G	[1G	[1g	[1b
=261	=261	=261	=261
1G]	1G]	1g]	1b]
==	==	==	==
*-	*-	*-	*-
!!!CDT: 1525/^1526/-1594/2/2
!!!OCY: Italia
!!!AGN: Mass (Paraphrase)
!!!AST: renaissance, vocal
!!!ASW: Gregorian Mass
!!!PWK: Masses, Book 7
!!!RNB: Cadence finals: E,C,G,D,F
!!!YOR: Le Opere Complete, v. 23, p. 149
!!!YOO: Rome, Italy: Fratelli Scalera
!!!END: 1992//
!!!EED: John Miller
!!!YEC: Copyright 2000, John Miller
!!!YEN: United States of America
!!!YEM: Rights to all derivative electronic formats reserved.
!!!YEM: Refer to licensing agreement for further details.
!!!YEM: This file must be accompanied by the licensing agreement.
!!!YEM: A copy of the licensing agreement may be found at http://www.music-cog.ohio-state.edu/HumdrumDatabases/Palestrina/license.txt
!!!EMD: converted to Humdrum by Bret Aarden
